X:1
T:Title
%%score { ( 1 4 5 ) | ( 2 3 6 ) }
L:1/8
M:4/4
K:G
V:1 treble nm="Grand Piano"
V:4 treble 
V:5 treble 
V:2 bass 
V:3 bass 
V:6 bass 
V:1
 z4 z2[Q:1/4=100] [CEG]2 | [EGc]3 c c2 E2 | B2 A2 G2 [B,=F]2 | E2 =FG A2 F2 | %4
[M:3/4] E4[K:bass] z2 |[M:1/4][K:treble] A2 |[M:4/4] d4 z4 | z2 B2 z4 | F2 GA B2 A2 | %9
[M:3/4] [^CA]4[K:bass] [F,D]2 |[M:1/4] [G,D]2 |[M:4/4][K:treble] [G,CE]2 [A,^CG]2 [A,DF]2 [F,D]2 | %12
 [G,DG]2 [DB]2 [DA]2 [B,G]2 | [EA]2 [Dc]2 [DB]2 [B,G]2 | [CGc]2 [Ge]2 [Gd]2 [Ge]2 | %15
 [=F=f]3 [Ae] [Ad]2 [Ac]2 | e4 d2 G2 | [Ec]2 [EG]2 z2 [Gc]2 | d2 G2 z2 d2 | e4 [Gc]4 | %20
 [GA]4 [A=f]4 | [=Fd]8 |[M:3/4] [CEc]6 |] %23
V:2
 z4 z2 C,2 | C2 z[K:treble] [EG] [A,E]2[K:bass] [G,C]2 | [=F,C^D]2 [F,CD]2 [G,CE]2 [G,,G,]2 | %3
 z2 [G,C]2 z4 |[M:3/4] C4 z2 |[M:1/4] [G,^C]2 |[M:4/4] D4 z4 | %7
 [E,G,C]2 .[E,^G,E]2 [A,C]2 [A,,A,]2 | z2 [A,D]2 z4 |[M:3/4] [A,,G,]4 D,2 |[M:1/4] B,,2 | %11
[M:4/4] C,2 A,,2 D,2 D,C, | B,,2 [G,,G,]2 [D,F,]2 [E,G,]2 | [C,G,]2 [D,F,]2 G,2 G,=F, | %14
 E,2 [C,C]2 [G,B,]2 [C,C]2 | [D,A,]3 [E,^C] [=F,D]2 [^F,A,]2 | [G,CG]4 [G,B,G]2 [G,B,=F]2 | %17
 [C,C]2 [C,C]2 z2 [E,C]2 | [G,B,G]2 [G,B,]2 z2 [G,B,G]2 | [CG]4[K:bass] [E,C]4 | [=F,C]4 [D,C]4 | %21
 C4 z4 |[M:3/4] C,6 |] %23
V:3
 x8 | z2 B,2[K:treble] z4[K:bass] | x8 | [C,G,C]2 D,E, [=F,C]2 [D,A,D]2 |[M:3/4] G,2 z2 [G,B,]2 | %5
[M:1/4] x2 |[M:4/4] [F,A,]2 z D [D,F,D]2 [D,F,D]2 | x8 | [D,A,D]2 E,F, [G,D]2 [A,^C]2 |[M:3/4] x6 | %10
[M:1/4] x2 |[M:4/4] x8 | x8 | x8 | x8 | x8 | x8 | x8 | x8 | x4[K:bass] x4 | x8 | G,4- [G,B,]4 | %22
[M:3/4] x6 |] %23
V:4
 x8 | x8 | x8 | x8 |[M:3/4] z2[K:bass] F,2 D2 |[M:1/4][K:treble] x2 |[M:4/4] z2 z d d2 A2 | %7
 c2 z D A2 [^CG]2 | x8 |[M:3/4] x4[K:bass] x2 |[M:1/4] x2 |[M:4/4][K:treble] x8 | x8 | x8 | x8 | %15
 x8 | x8 | x8 | x8 | x8 | x8 | x8 |[M:3/4] x6 |] %23
V:5
 x8 | x8 | x8 | x8 |[M:3/4] x2[K:bass] x4 |[M:1/4][K:treble] x2 |[M:4/4] z2 G,2 z4 | x8 | x8 | %9
[M:3/4] x4[K:bass] x2 |[M:1/4] x2 |[M:4/4][K:treble] x8 | x8 | x8 | x8 | x8 | x8 | x8 | x8 | x8 | %20
 x8 | x8 |[M:3/4] x6 |] %23
V:6
 x8 | x3[K:treble] x3[K:bass] x2 | x8 | x8 |[M:3/4] x6 |[M:1/4] x2 |[M:4/4] z2 E,2 z4 | x8 | x8 | %9
[M:3/4] x6 |[M:1/4] x2 |[M:4/4] x8 | x8 | x8 | x8 | x8 | x8 | x8 | x8 | x4[K:bass] x4 | x8 | x8 | %22
[M:3/4] x6 |] %23

